X:1
T:J. S. Bach
T:BWV 988
T:Goldberg Variations: Variation XXV
%%score { 1 | ( 2 3 ) }
L:1/8
Q:1/4=72
M:3/4
K:Bb
V:1 treble nm="Harp"
V:2 bass 
V:3 bass 
V:1
"^Adagio" z/ d/e/8d/8^c/4d/{d} b-b/4a/4g/4f/4 e/dc/- | %1
 c/=c/d/8c/8=B/4c/{c} _a-a/4g/4f/4e/4 _d/cB/- | B/_B/c/8B/8A/4B/ ^f/g^c/- c/dG/ | G/A/4B/4A z4 | %4
 z/ D/E/8D/8^C/4D/{D} d-d/4c/4B/4A/4 G/4F/4_A/-A/4D/4F/- | %5
 F/E/{F}E/4D/4E/{E} e-e/4d/4c/4B/4 A/4G/4B/-B/4=E/4G/- | %6
 G/^F/G/8F/8=E/4F/ (3=B/c/e/(3^c/d/F/ (3_B/A/D/(3_E/=B,/C/- | C/B,/4A,/4B, z4 | %8
 z/4 D/4=E/4^F/4G/4B/4G/- G/B=B/ c/^cd/ | ^d/=e/-e/4b/4a/4g/4 ^f/4e/4dd/ d'/^c'=c'/ | %10
 =b/_b/-b/4a/4^g/- g/a/-a/4d/4c/4B/4 c/4A/4B/4G/4F/4=E/4F/4d/4 | %11
 G/4F/4=E/4F/4E z/4 D/4^C/4D/4E/4F/4G/4A/4 B/4A/4d/-d/4^c/4=e/- | %12
 e/A/B/8A/8^G/4A/{A} a-a/4b/4a/4^g/4 a/4d/4c/4B/4c/4c/4B/4A/4 | %13
 A/B/c/8B/8A/4B/{B} b-b/4e/4d/4^c/4 d/4c'/4=bd/ | %14
 ^c/BA/ e/d/-d/4c/4=e/4g/4 b/a/-a/8g/8f/8e/8d/4c/4 | ^cd z2 z2 | %16
 z/ d/e/8d/8^c/4d/{d} b-b/4a/4g/4f/4 e/dc/- | c/=c/d/8c/8=B/4c/{c} _a-a/4g/4f/4e/4 _d/cB/- | %18
 B/_B/c/8B/8A/4B/ ^f/g^c/- c/dG/ | G/A/4B/4A z4 | %20
 z/ D/E/8D/8^C/4D/{D} d-d/4c/4B/4A/4 G/4F/4_A/-A/4D/4F/- | %21
 F/E/{F}E/4D/4E/{E} e-e/4d/4c/4B/4 A/4G/4B/-B/4=E/4G/- | %22
 G/^F/G/8F/8=E/4F/ (3=B/c/e/(3^c/d/F/ (3_B/A/D/(3_E/=B,/C/- | C/B,/4A,/4B, z4 | %24
 z/4 D/4=E/4^F/4G/4B/4G/- G/B=B/ c/^cd/ | ^d/=e/-e/4b/4a/4g/4 ^f/4e/4dd/ d'/^c'=c'/ | %26
 =b/_b/-b/4a/4^g/- g/a/-a/4d/4c/4B/4 c/4A/4B/4G/4F/4=E/4F/4d/4 | %27
 G/4F/4=E/4F/4E z/4 D/4^C/4D/4E/4F/4G/4A/4 B/4A/4d/-d/4^c/4=e/- | %28
 e/A/B/8A/8^G/4A/{A} a-a/4b/4a/4^g/4 a/4d/4c/4B/4c/4c/4B/4A/4 | %29
 A/B/c/8B/8A/4B/{B} b-b/4e/4d/4^c/4 d/4c'/4=bd/ | %30
 ^c/BA/ e/d/-d/4c/4=e/4g/4 b/a/-a/8g/8f/8e/8d/4c/4 | ^cd z2 z2 | %32
 z/ a/b/8a/8^g/4a/ e/d/-d/4=e/4^f/4=g/4 a/4c/4_ed/- | %33
 d/f/g/8f/8[e^e]/4f/ _A/G/-G/4=A/4=B/4c/4 d/4F/4_AG/- | G/c=B/ c/4e/4_dc/- c/4f/4e/-e/4f/4e/4=d/4 | %35
 e/4a/4b/e/d/ z4 | z/ B/_c/8B/8_A/4B/ B/b/-b/4_c'/4b/4_a/4 b/_d/-d/4_c/4B/- | %37
 B/_c/_d/8c/8B/4c/ c/_c'/-c'/4_f/4e/4=d/4 e/4_d'/4=c'e/ | %38
 d/_cB/ _f/e/-e/4d/4=f/4_a/4 _c'/b/-b/8a/8_g/8f/8e/4d/4 | de z4 | %40
 z/ G/_A/8G/8^F/4G/{G} e-e/4d/4c/4B/4 A/G^F/- | F/=F/G/8F/8=E/4F/ _d-_d/4c/4B/4_A/4 _G/F=E/- | %42
 E/_E/F/8E/8D/4E/ E/c/-c/4B/4_A/4G/4 ^F/e/-e/4d/4^c/ | %43
 ^c/d/E/D/ z/4 =E/4^F/4G/4A/4=B/4=c/4d/4 e/4d/4g/-g/4^f/4a/- | %44
 a/d/e/8d/8^c/4d/ d'-d'/4c'/4b/4a/4 g/4d'/4f/-f/4e/4d/4=c/4 | %45
 d/4_a/4g/4f/4e/4d/4c/4=B/4 c/4f/4e/4d/4c/4_B/4A/4G/4 A/4d/4c/4B/4A/4G/4^F/4=E/4 | %46
 ^F/4B/4A/4G/4F/4=E/4D/4^C/4 D/4G/4F/4E/4D/4=C/4B,/4A,/4 B,/4_E/4D/4C/4B,/4A,/4G,/4^F,/4 | %47
{^F,} G,2 z4 | z/ a/b/8a/8^g/4a/ e/d/-d/4=e/4^f/4=g/4 a/4c/4_ed/- | %49
 d/f/g/8f/8[e^e]/4f/ _A/G/-G/4=A/4=B/4c/4 d/4F/4_AG/- | G/c=B/ c/4e/4_dc/- c/4f/4e/-e/4f/4e/4=d/4 | %51
 e/4a/4b/e/d/ z4 | z/ B/_c/8B/8_A/4B/ B/b/-b/4_c'/4b/4_a/4 b/_d/-d/4_c/4B/- | %53
 B/_c/_d/8c/8B/4c/ c/_c'/-c'/4_f/4e/4=d/4 e/4_d'/4=c'e/ | %54
 d/_cB/ _f/e/-e/4d/4=f/4_a/4 _c'/b/-b/8a/8_g/8f/8e/4d/4 | de z4 | %56
 z/ G/_A/8G/8^F/4G/{G} e-e/4d/4c/4B/4 A/G^F/- | F/=F/G/8F/8=E/4F/ _d-_d/4c/4B/4_A/4 _G/F=E/- | %58
 E/_E/F/8E/8D/4E/ E/c/-c/4B/4_A/4G/4 ^F/e/-e/4d/4^c/ | %59
 ^c/d/E/D/ z/4 =E/4^F/4G/4A/4=B/4=c/4d/4 e/4d/4g/-g/4^f/4a/- | %60
 a/d/e/8d/8^c/4d/ d'-d'/4c'/4b/4a/4 g/4d'/4f/-f/4e/4d/4=c/4 | %61
 d/4_a/4g/4f/4e/4d/4c/4=B/4 c/4f/4e/4d/4c/4_B/4A/4G/4 A/4d/4c/4B/4A/4G/4^F/4=E/4 | %62
 ^F/4B/4A/4G/4F/4=E/4D/4^C/4 D/4G/4F/4E/4D/4=C/4B,/4A,/4 B,/4_E/4D/4C/4B,/4A,/4G,/4^F,/4 | %63
{^F,} G,2 z4 |] %64
V:2
 B,2[I:staff -1] z[I:staff +1] D CB, | A,2[I:staff -1] z[I:staff +1] C B,_A, | %2
 G,2[I:staff -1] z[I:staff +1] B, A,G,- | G,^F,/=E,/ F,/A,C/ C/F,A,/- | %4
 A,/^F,/G,[I:staff -1] z[I:staff +1] G, D,/=F,/G,/_A,/ | %5
 _A,G,[I:staff -1] z[I:staff +1] =A, =E,/G,/A,/B,/ | B,A,[I:staff -1] z[I:staff +1] A, G,^F,- | %7
 F,G,/^F,/ G,/D,E,/- E,/4D,/4G,/G,/4=F,/4C/- | C/B,/4A,/4B,[I:staff -1] z[I:staff +1] G GG | %9
 G^F[I:staff -1] z[I:staff +1] =F FF | F=E[I:staff -1] z[I:staff +1] _E ED | %11
 D^C[I:staff -1] z2 z2 | z[I:staff +1] D DE E2 |[I:staff -1] z[I:staff +1] =E EF F2 | %14
[I:staff -1] z[I:staff +1] ^F FG G2- | G^F/=E/ F2[I:staff -1] z2 | %16
[I:staff +1] B,2[I:staff -1] z[I:staff +1] D CB, | A,2[I:staff -1] z[I:staff +1] C B,_A, | %18
 G,2[I:staff -1] z[I:staff +1] B, A,G,- | G,^F,/=E,/ F,/A,C/ C/F,A,/- | %20
 A,/^F,/G,[I:staff -1] z[I:staff +1] G, D,/=F,/G,/_A,/ | %21
 _A,G,[I:staff -1] z[I:staff +1] =A, =E,/G,/A,/B,/ | B,A,[I:staff -1] z[I:staff +1] A, G,^F,- | %23
 F,G,/^F,/ G,/D,E,/- E,/4D,/4G,/G,/4=F,/4C/- | C/B,/4A,/4B,[I:staff -1] z[I:staff +1] G GG | %25
 G^F[I:staff -1] z[I:staff +1] =F FF | F=E[I:staff -1] z[I:staff +1] _E ED | %27
 D^C[I:staff -1] z2 z2 | z[I:staff +1] D DE E2 |[I:staff -1] z[I:staff +1] =E EF F2 | %30
[I:staff -1] z[I:staff +1] ^F FG G2- | G^F/=E/ F2[I:staff -1] z2 | %32
[I:staff +1][K:treble][I:staff -1] z[I:staff +1] F F^F FG | GD[I:staff -1] z[I:staff +1] F FE | %34
 ED E=E F_G- | GF/_G/ _A/DG/4E/4 G/4E/4F_C/- | C/B,/E E_F F2 |[I:staff -1] z[I:staff +1] G G_A A2 | %38
[I:staff -1] z[I:staff +1] G G_A A2- | AG/F/ G3/2=A/4=B/4 c/4F/4_AG/ | %40
 FE[I:staff -1] z[I:staff +1] G =FE | D2[I:staff -1] z[I:staff +1] F _E_D | %42
 C2[I:staff -1] z[I:staff +1] E/[K:bass]D/ CB, | A,>A, DC B,A, | D,^F, F,G, G,_A, | %45
[I:staff -1] z[I:staff +1] G, G,A, A,B, |[I:staff -1] z[I:staff +1] A, A,B, B,C- | %47
 CB,/A,/ B,2[I:staff -1] z2 | z[I:staff +1] F F^F FG | GD[I:staff -1] z[I:staff +1] F FE | %50
 ED E=E F_G- | GF/_G/ _A/DG/4E/4 G/4E/4F_C/- | C/B,/E E_F F2 |[I:staff -1] z[I:staff +1] G G_A A2 | %54
[I:staff -1] z[I:staff +1] G G_A A2- | AG/F/ G3/2=A/4=B/4 c/4F/4_AG/ | %56
 FE[I:staff -1] z[I:staff +1] G =FE | D2[I:staff -1] z[I:staff +1] F _E_D | %58
 C2[I:staff -1] z[I:staff +1] E/D/ CB, | A,>A, DC B,A, | D,^F, F,G, G,_A, | %61
[I:staff -1] z[I:staff +1] G, G,A, A,B, |[I:staff -1] z[I:staff +1] A, A,B, B,C- | %63
 CB,/A,/ B,[I:staff -1] z z2 |] %64
V:3
 G,2 z G, G,G, | G,^F, z =F, F,F, | F,=E, z _E, E,E, | D,2 z E, D,C, | B,,2 z B,, =B,,B,, | %5
 =B,,C, z C, ^C,C, | ^C,D, z D, D,D, | G,,2 z G,, B,,D, | G,>D GE ED | ^CA, D=C B,A, | %10
 G,C F,^F, G,^G, | A,B, A,G, F,=E, | F,2 z ^F, F,G, | G,2 z ^G, G,A, | A,2 z A, ^CA, | D3 C B,A, | %16
 G,2 z G, G,G, | G,^F, z =F, F,F, | F,=E, z _E, E,E, | D,2 z E, D,C, | B,,2 z B,, =B,,B,, | %21
 =B,,C, z C, ^C,C, | ^C,D, z D, D,D, | G,,2 z G,, B,,D, | G,>D GE ED | ^CA, D=C B,A, | %26
 G,C F,^F, G,^G, | A,B, A,G, F,=E, | F,2 z ^F, F,G, | G,2 z ^G, G,A, | A,2 z A, ^CA, | D3 C D,2 | %32
[K:treble] D2 z C CB, | B,G,/A,/ B,=B, B,C | C2 z G, _A,=A, | B,2 z _C B,_A, | _G,2 z =G, G,_A, | %37
 B,2 z B, DB, | B,2 z B, DB, | C2 z C CC | C2 z C CC | C=B, z _B, B,B, | B,A, z[K:bass] _A, A,G, | %43
 G,^F, z F, G,C, | B,,2 z B,, B,,=B,, | =B,,/D,/C, z C, C,^C, | ^C,/=E,/D, z D, D,D, | %47
 G,2- G,D, G,,/A,/B,/C/ | D2 z C CB, | B,G,/A,/ B,=B, B,C | C2 z G, _A,=A, | B,2 z _C B,_A, | %52
 _G,2 z =G, G,_A, | B,2 z B, DB, | B,2 z B, DB, | C2 z C CC | C2 z C CC | C=B, z _B, B,B, | %58
 B,A, z _A, A,G, | G,^F, z F, G,C, | B,,2 z B,, B,,=B,, | =B,,/D,/C, z C, C,^C, | %62
 ^C,/=E,/D, z D, D,D, | G,2- G,/^F,/G,/D,/ G,,2 |] %64

